X: 1
T: Lugum Leik
M: 4/4
L: 1/8
R: reel
K: Cmaj
A,2 | D2 ED C2 C2 | D2 F2 A2 c2 | cBAG B2 Bc |[1 A2 AF D2 :|| [2 A2 A4 cB 
||: G2 G4 AF | D2 D4 FD | M:6/4 C2 C2 E2 EF D2 DF |M:4/4 A2 A4 cA | G2 G4 AF | D2 D4 FD | C2 C2 E2 EF | [1 M:6/4 D2 D2 D2 FA A2 cA :||[2 M:4/4 D2 D2 D2 ||
